img/icons/tooltip/Mail.svg

<svg width="20" height="20" viewBox="0 0 20 20" fill="none" xmlns="http://www.w3.org/2000/svg">
<path d="M3.33333 5.00008L10.1905 10.0001L16.6666 5.00008M17.5 6.83337V13.1667C17.5 14.1001 17.5002 14.5669 17.3185 14.9234C17.1587 15.237 16.9034 15.4919 16.5898 15.6517C16.2333 15.8334 15.7669 15.8334 14.8335 15.8334H5.16683C4.23341 15.8334 3.76635 15.8334 3.40983 15.6517C3.09623 15.4919 2.84144 15.237 2.68166 14.9234C2.5 14.5669 2.5 14.1001 2.5 13.1667V6.83337C2.5 5.89995 2.5 5.4333 2.68166 5.07678C2.84144 4.76318 3.09623 4.50819 3.40983 4.3484C3.76635 4.16675 4.23341 4.16675 5.16683 4.16675H14.8335C15.7669 4.16675 16.2333 4.16675 16.5898 4.3484C16.9034 4.50819 17.1587 4.76318 17.3185 5.07678C17.5002 5.4333 17.5 5.89995 17.5 6.83337Z" stroke="#8C8D92" stroke-width="2" stroke-linecap="round" stroke-linejoin="round"/>
</svg>

<svg width="20" height="20" fill="none" xmlns="http://www.w3.org/2000/svg"><path d="m3.333 5 6.857 5 6.477-5m.833 1.833v6.334c0 .933 0 1.4-.181 1.756a1.67 1.67 0 0 1-.73.729c-.356.181-.822.181-1.755.181H5.167c-.934 0-1.4 0-1.757-.181a1.666 1.666 0 0 1-.728-.729C2.5 14.567 2.5 14.1 2.5 13.167V6.833c0-.933 0-1.4.182-1.756.16-.314.414-.569.728-.729.356-.181.823-.181 1.757-.181h9.666c.934 0 1.4 0 1.757.181.313.16.569.415.729.729.181.356.181.823.181 1.756Z" stroke="#8C8D92" stroke-width="2" stroke-linecap="round" stroke-linejoin="round"/></svg>
